X:2763
L:1/8
M:3/4
K:F
"F" c2 A3 B | c4 .f2 | .a2 !>!g3 f |"C7" e4 .d2 | .d2 !>!G3 A |1 B4 e2 | .e2 !>!d3 c |"F" c4 A2 :|2 
 B4 c2 | dd d2 e2 |"F" f6 |:"C7" ba gf ed |"F" d3 c AF |"C7" d3 c BE |"F" d3 c AF |"C7" ba gf ed | 
"F" d3 c AF |"C7" cc d2 e2 |1"F" f4 z2 :|2"F" f4 d_e |:[K:Bb]"Bb" f6 |"G7" gf =ef gf |"Cm" e6 | 
 c6 |"F" f6 | gf =ef gf |"Bb" d6 | B6 | f6 | gf =ef gf |"Eb" g4 g2 | c'4 b2 |"F7" a3 g f2 | 
 f2 g2 a2 |"Bb" b3 b b2 | b2 z2 z2 |]

